client/src/components/headers/icon/cart.svg

<svg xmlns="http://www.w3.org/2000/svg" viewBox="0 0 576 512"><!--! Font Awesome Pro 6.2.0 by @fontawesome - https://fontawesome.com License - https://fontawesome.com/license (Commercial License) Copyright 2022 Fonticons, Inc. --><path d="M24 0C10.7 0 0 10.7 0 24S10.7 48 24 48H76.1l60.3 316.5c2.2 11.3 12.1 19.5 23.6 19.5H488c13.3 0 24-10.7 24-24s-10.7-24-24-24H179.9l-9.1-48h317c14.3 0 26.9-9.5 30.8-23.3l54-192C578.3 52.3 563 32 541.8 32H122l-2.4-12.5C117.4 8.2 107.5 0 96 0H24zM176 512c26.5 0 48-21.5 48-48s-21.5-48-48-48s-48 21.5-48 48s21.5 48 48 48zm336-48c0-26.5-21.5-48-48-48s-48 21.5-48 48s21.5 48 48 48s48-21.5 48-48z"/></svg>

<svg width="574" height="512" viewBox="0 0 574 512" fill="none" xmlns="http://www.w3.org/2000/svg">
<path d="M24 0C10.7 0 0 10.7 0 24C0 37.3 10.7 48 24 48H76.1L136.4 364.5C138.6 375.8 148.5 384 160 384H488C501.3 384 512 373.3 512 360C512 346.7 501.3 336 488 336H179.9L170.8 288H487.8C502.1 288 514.7 278.5 518.6 264.7L572.6 72.7C578.3 52.3 563 32 541.8 32H122L119.6 19.5C117.4 8.2 107.5 0 96 0H24ZM176 512C202.5 512 224 490.5 224 464C224 437.5 202.5 416 176 416C149.5 416 128 437.5 128 464C128 490.5 149.5 512 176 512ZM512 464C512 437.5 490.5 416 464 416C437.5 416 416 437.5 416 464C416 490.5 437.5 512 464 512C490.5 512 512 490.5 512 464Z" fill="white"/>
</svg>
